X:1
T:Wonderful Love of Jesus
T:Wonderful Love of Jesus
T:Edmund Simon Lorenz
T:Edmund Simon Lorenz, 1883
T:Public Domain Courtesy of the Cyber Hymnal™
C:Edmund Simon Lorenz
Z:Public Domain
Z:Courtesy of the Cyber Hymnal™
%%score ( 1 2 ) ( 3 4 )
L:1/8
Q:1/4=98
M:6/8
K:C
V:1 treble 
V:2 treble 
V:3 bass 
V:4 bass 
V:1
 [EG] | [EG]2 [Ec] [Ec]2 [GB] | [GB]2 [FA] [FA]2 [FA] | D2 [DG] [DG]2 [DF] | %4
w: 1.~In|vain in high and|ho- ly lays My|soul her grate- ful|
w: 2.~A|joy by day, a|peace by night, In|storms a calm, in|
w: 3.~My|hope for par- don|when I call, My|trust for lift- ing|
 [DF]2 [CE] [CE]2 [EG] | [Ec]2 [Ge] [Ge]2 [Fd] | [Fd]2 [Fc] [Ac][GB][FA] | %7
w: voice would raise; For|who can sing the|wor- thy praise Of the|
w: dark- ness light; In|pain a balm, in|weak- ness might, Is the|
w: when I fall; In|life, in death, my|all in all, Is the|
 [EG]>[EG][EG] [FB]2 [FA] | [EG] [Ec]4 z ||"^Refrain" [EG]>[EG][EG] [EG]2 z | %10
w: won- der- ful love of|Je- sus?||
w: won- der- ful love of|Je- sus.|Won- der- ful love!|
w: won- der- ful love of|Je- sus.||
 [FA]>[FA][FA] [FA]2 z | [EG]>[EG][EG] [EG]2 [DF] | [CE] [EG]4 z | [Ec]>[EG][EG] [EG]2 z | %14
w: ||||
w: Won- der- ful love!|Won- der- ful love of|Je- sus!|Won- der- ful love!|
w: ||||
 [Fd]>[FA][FA] [FA]2 z | [FB]>[FB][FB] [FB]2 [FA] | [EG] [Ec]4 |] %17
w: |||
w: Won- der- ful love!|Won- der- ful love of|Je- sus!|
w: |||
V:2
 x | x6 | x6 | D2 x4 | x6 | x6 | x6 | x6 | x6 || x6 | x6 | x6 | x6 | x6 | x6 | x6 | x5 |] %17
V:3
 [C,C] | [C,C]2 [C,G,] [C,G,]2 [C,C] | [F,C]2 [F,C] [F,C]2 [F,C] | [G,B,]2 [G,B,] [G,B,]2 G, | %4
 [C,G,]2 [C,G,] [C,G,]2 [C,C] | [C,C]2 [C,C] [C,C]2 [C,G,] | [F,A,]2 [F,A,] [F,C][F,C][F,C] | %7
 [G,C]>[G,C][G,C] [G,D]2 [G,B,] | [C,C] [C,G,]4 z || [C,C]>[C,C][C,C] [C,C]2 z | %10
 [F,C]>[F,C][F,C] [F,C]2 z | [G,B,]>[G,B,][G,B,] [G,B,]2 [G,A,] | [C,G,] [C,C]4 z | %13
 [C,G,]>[C,C][C,C] [C,C]2 z | [F,A,]>[F,D][F,D] [F,D]2 z | G,>[G,B,][G,D] [G,D]2 [G,B,] | %16
 [C,C] [C,G,]4 |] %17
V:4
 x | x6 | x6 | x5 G, | x6 | x6 | x6 | x6 | x6 || x6 | x6 | x6 | x6 | x6 | x6 | G,3/2 x9/2 | x5 |] %17

